SunnyProdefi/pinocchioRep/planning/interpolatedPoints.csv
joint1,joint2,joint3,joint4,joint5,joint6,joint7,joint8,joint9,joint10,joint11,joint12
-0.5235,-0.7853,1.5708,-0.7853,1.0471,-0.2617,0.5235,-0.7853,1.5708,0.7853,1.0471,0.261799
-0.504992,-0.75952,1.60031,-0.778304,1.02653,-0.305857,0.531605,-0.771709,1.57501,0.784176,1.05519,0.278741
-0.501561,-0.749545,1.60815,-0.768237,1.01299,-0.322006,0.535836,-0.76892,1.56844,0.788794,1.05541,0.281531
-0.506669,-0.74953,1.60307,-0.756769,1.0047,-0.320548,0.536757,-0.772507,1.5556,0.795704,1.05015,0.275687
-0.515365,-0.754905,1.59171,-0.745085,1.0002,-0.309553,0.534921,-0.779043,1.5399,0.802374,1.04139,0.265526
-0.524105,-0.762248,1.57887,-0.733947,0.99841,-0.295006,0.530859,-0.786003,1.52381,0.807093,1.03076,0.254279
-0.530569,-0.76915,1.56774,-0.723767,0.998485,-0.28106,0.52508,-0.791649,1.50896,0.808859,1.01959,0.244216
-0.533483,-0.774077,1.56009,-0.714663,0.999838,-0.27028,0.518063,-0.794936,1.49629,0.807281,1.0089,0.236761
-0.532437,-0.776242,1.55656,-0.706537,1.00208,-0.263903,0.510254,-0.795396,1.48612,0.802464,0.999433,0.232615
-0.527705,-0.775467,1.55685,-0.699133,1.00496,-0.262075,0.502061,-0.793041,1.47837,0.794915,0.991695,0.231878
-0.520064,-0.772051,1.55999,-0.692105,1.00836,-0.264111,0.49385,-0.788253,1.47258,0.785427,0.985975,0.234167
-0.510614,-0.766636,1.56454,-0.685088,1.01223,-0.26874,0.485941,-0.781682,1.4681,0.774983,0.98237,0.238737
-0.500598,-0.760071,1.56886,-0.677756,1.01654,-0.274355,0.478599,-0.774137,1.46423,0.764644,0.980814,0.2446
-0.491221,-0.753281,1.57129,-0.669897,1.02125,-0.279263,0.472035,-0.766487,1.46026,0.755447,0.981104,0.250647
-0.48347,-0.747132,1.57045,-0.661475,1.02627,-0.281935,0.466398,-0.759549,1.4557,0.748299,0.982924,0.25577
-0.477931,-0.742297,1.56541,-0.652694,1.03142,-0.281257,0.461772,-0.753985,1.45033,0.743873,0.985878,0.258978
-0.474613,-0.739123,1.55599,-0.644071,1.03636,-0.276776,0.458171,-0.750201,1.44436,0.742499,0.989508,0.259519
-0.472819,-0.737527,1.54286,-0.636463,1.04061,-0.268893,0.455533,-0.74826,1.4385,0.744089,0.993332,0.256987
-0.471307,-0.737061,1.52747,-0.63093,1.04356,-0.258749,0.453732,-0.747915,1.43379,0.748166,0.996875,0.251346
-0.468674,-0.737105,1.51163,-0.628464,1.04459,-0.247872,0.452585,-0.748738,1.43129,0.753998,0.999722,0.242894
-0.46376,-0.737073,1.49714,-0.629699,1.0432,-0.237794,0.451871,-0.75025,1.4317,0.760743,1.00156,0.232221
-0.456054,-0.736615,1.48535,-0.634626,1.03907,-0.229679,0.451341,-0.752059,1.43498,0.767582,1.00224,0.220169
-0.44604,-0.735802,1.47684,-0.642353,1.03225,-0.223985,0.450731,-0.753976,1.4401,0.773852,1.0018,0.207775
-0.43513,-0.735095,1.47134,-0.651215,1.02308,-0.220419,0.449778,-0.756025,1.44514,0.779102,1.00045,0.196164
-0.425189,-0.735134,1.46799,-0.659212,1.01218,-0.21819,0.44823,-0.758345,1.44786,0.783074,0.998487,0.186368
-0.418007,-0.736495,1.46559,-0.664495,1.00029,-0.216287,0.445855,-0.761078,1.44636,0.785676,0.996213,0.179146
-0.414769,-0.739443,1.46293,-0.665858,0.988279,-0.213767,0.442456,-0.764258,1.43969,0.786954,0.993834,0.174795
-0.415576,-0.743712,1.45901,-0.663174,0.97696,-0.210023,0.437879,-0.767704,1.4284,0.787065,0.991385,0.172997
-0.419369,-0.748501,1.45321,-0.657446,0.967056,-0.204889,0.432041,-0.771021,1.41456,0.786248,0.988719,0.172837
-0.424367,-0.75272,1.44528,-0.650363,0.959089,-0.198549,0.424969,-0.773695,1.40105,0.784797,0.98559,0.173068
-0.42859,-0.755287,1.43528,-0.64377,0.953293,-0.191414,0.416839,-0.775225,1.39073,0.783034,0.981758,0.172416
-0.430382,-0.755425,1.42359,-0.639142,0.949518,-0.183994,0.408017,-0.77525,1.38563,0.781279,0.977086,0.169876
-0.428912,-0.752941,1.41081,-0.63708,0.947152,-0.176777,0.399097,-0.773662,1.38615,0.779824,0.971633,0.165006
-0.424356,-0.748318,1.39773,-0.637155,0.945177,-0.170142,0.390872,-0.770653,1.39086,0.778912,0.965689,0.158024
-0.417603,-0.742504,1.38521,-0.638279,0.94242,-0.164325,0.384207,-0.766617,1.39709,0.778727,0.959695,0.149619
-0.409847,-0.736645,1.37403,-0.63919,0.93787,-0.159406,0.379886,-0.762045,1.40179,0.779386,0.954146,0.1407
-0.402177,-0.731806,1.36476,-0.638951,0.930976,-0.155282,0.378462,-0.757398,1.40238,0.780933,0.949496,0.132141
-0.39518,-0.728701,1.35763,-0.63742,0.92195,-0.151662,0.380115,-0.753002,1.39746,0.78333,0.94606,0.124532
-0.388757,-0.727545,1.35251,-0.635433,0.911845,-0.148086,0.38458,-0.748986,1.38732,0.786466,0.943954,0.118037
-0.382337,-0.728109,1.34895,-0.634431,0.902233,-0.14405,0.391237,-0.745332,1.3735,0.790193,0.943099,0.112446
-0.375213,-0.729846,1.34633,-0.635911,0.894765,-0.139147,0.399242,-0.741955,1.35817,0.794368,0.943251,0.107289
-0.366883,-0.732018,1.34401,-0.640888,0.890723,-0.133214,0.40766,-0.738789,1.34359,0.798897,0.944023,0.101957
-0.357381,-0.733824,1.34143,-0.649353,0.890582,-0.126468,0.415599,-0.73586,1.33144,0.803779,0.944914,0.0958083
-0.347442,-0.734515,1.3382,-0.660012,0.893777,-0.119556,0.422314,-0.733334,1.32243,0.809116,0.945353,0.0882864
-0.338281,-0.733501,1.33413,-0.670682,0.898957,-0.11338,0.427265,-0.731462,1.31646,0.815056,0.944776,0.0790155
-0.331216,-0.730446,1.32912,-0.678926,0.904416,-0.108826,0.430147,-0.730493,1.3128,0.821709,0.942723,0.0678972
-0.327289,-0.725367,1.3232,-0.6827,0.908539,-0.106507,0.430923,-0.730588,1.31049,0.829057,0.938928,0.0552049
-0.326892,-0.718729,1.31639,-0.681001,0.910237,-0.106493,0.429851,-0.731735,1.30854,0.836871,0.933419,0.0416773
-0.329524,-0.711468,1.30874,-0.674279,0.909257,-0.108166,0.427485,-0.733697,1.30622,0.844672,0.926559,0.0285378
-0.333957,-0.704804,1.30029,-0.664176,0.906092,-0.110399,0.424556,-0.736084,1.30305,0.85183,0.918957,0.0172909
-0.338591,-0.699953,1.29112,-0.652946,0.901705,-0.111904,0.421816,-0.738477,1.29876,0.85773,0.911307,0.00941271
-0.341827,-0.697826,1.28131,-0.642853,0.897236,-0.111586,0.419869,-0.740553,1.2932,0.861947,0.904224,0.00603569
-0.342427,-0.698742,1.271,-0.635574,0.893722,-0.108891,0.419007,-0.742213,1.28632,0.864406,0.898084,0.00763538
-0.339815,-0.702222,1.26041,-0.631738,0.891854,-0.104063,0.4191,-0.74367,1.27806,0.865504,0.892903,0.0138025
-0.334091,-0.707136,1.24977,-0.631006,0.891928,-0.0980088,0.41968,-0.745365,1.2684,0.866,0.888379,0.0233486
-0.32589,-0.712055,1.23933,-0.632469,0.893902,-0.0919408,0.420158,-0.74779,1.2574,0.866784,0.884032,0.0346093
-0.316218,-0.715629,1.22932,-0.635068,0.897462,-0.0869993,0.420036,-0.751313,1.24519,0.868634,0.879353,0.0457625
-0.306298,-0.71695,1.21991,-0.638014,0.902092,-0.0838785,0.419128,-0.755988,1.23206,0.871972,0.873947,0.0551453
-0.297414,-0.715854,1.21118,-0.641131,0.907141,-0.0825225,0.417729,-0.761417,1.21847,0.876679,0.867658,0.0615357
-0.290737,-0.712894,1.20316,-0.644816,0.911911,-0.0821831,0.416527,-0.766818,1.20499,0.882167,0.860564,0.064253
-0.287158,-0.709047,1.19584,-0.649716,0.915752,-0.0817445,0.416341,-0.77125,1.19222,0.887655,0.852893,0.063125
-0.287117,-0.705412,1.18925,-0.656371,0.918165,-0.0800751,0.417828,-0.773855,1.18066,0.892462,0.844917,0.0584415
-0.290426,-0.702898,1.18346,-0.664867,0.918897,-0.0763783,0.421201,-0.774091,1.1706,0.896302,0.836851,0.0509078
-0.296142,-0.701955,1.17869,-0.674539,0.918023,-0.0704994,0.425986,-0.771946,1.16203,0.899522,0.828774,0.0415864
-0.302693,-0.702507,1.17522,-0.684049,0.915912,-0.0629426,0.431086,-0.767917,1.15468,0.903032,0.82062,0.0317607
-0.308254,-0.704106,1.17333,-0.691822,0.913086,-0.0546194,0.435128,-0.762803,1.14804,0.907927,0.812264,0.0227257
-0.311147,-0.706099,1.17326,-0.696515,0.910062,-0.0465613,0.436847,-0.757458,1.14152,0.915074,0.803613,0.01557
-0.310249,-0.707796,1.17504,-0.697495,0.907197,-0.0396337,0.435467,-0.752555,1.13453,0.924699,0.794695,0.010957
-0.305357,-0.708636,1.17849,-0.695263,0.904546,-0.0342714,0.431047,-0.748361,1.12657,0.936025,0.785743,0.00893176
-0.297232,-0.708262,1.18317,-0.691427,0.901854,-0.0304131,0.42451,-0.744706,1.11733,0.947321,0.777189,0.00894215
-0.287263,-0.706496,1.18842,-0.688162,0.898699,-0.0276648,0.417304,-0.741174,1.10668,0.956435,0.76955,0.0101097
-0.277071,-0.7033,1.19348,-0.687575,0.894659,-0.0255031,0.410991,-0.737315,1.09474,0.961416,0.763308,0.0115427
-0.268113,-0.698742,1.19752,-0.691078,0.889482,-0.0234779,0.406851,-0.732879,1.08183,0.961128,0.758781,0.0126496
-0.261298,-0.692951,1.19973,-0.698791,0.883245,-0.0214043,0.405493,-0.728014,1.06858,0.955828,0.756005,0.0134316
-0.256822,-0.686106,1.1994,-0.709402,0.876388,-0.0194229,0.406736,-0.723308,1.0558,0.94726,0.754694,0.0145341
-0.254308,-0.678455,1.19605,-0.720689,0.869578,-0.0178682,0.409859,-0.719578,1.04435,0.938053,0.754321,0.0169481
-0.253009,-0.670335,1.1895,-0.730173,0.863528,-0.0170961,0.413938,-0.7176,1.03493,0.930962,0.754217,0.021635
-0.252019,-0.6622,1.18001,-0.735786,0.85882,-0.01731,0.418178,-0.717847,1.02793,0.928113,0.753682,0.0291495
-0.250476,-0.654639,1.16839,-0.736511,0.855729,-0.0183945,0.42224,-0.72023,1.02322,0.930271,0.752081,0.0392793
-0.247714,-0.648357,1.15592,-0.732674,0.854145,-0.0198661,0.426368,-0.724022,1.02014,0.936545,0.748928,0.0509319
-0.243317,-0.644058,1.14409,-0.725588,0.853658,-0.021036,0.431153,-0.728106,1.01763,0.944888,0.743926,0.0624749
-0.237147,-0.642315,1.13424,-0.717031,0.85369,-0.021233,0.437205,-0.731314,1.01459,0.952827,0.736991,0.0722023
-0.229374,-0.643434,1.12714,-0.708706,0.853628,-0.0200281,0.444811,-0.732768,1.01005,0.958188,0.728281,0.0788044
-0.220499,-0.647326,1.12268,-0.701722,0.85296,-0.0174519,0.453616,-0.732212,1.00352,0.959814,0.718219,0.081826
-0.211332,-0.653444,1.11972,-0.6963,0.851357,-0.0140725,0.462497,-0.730172,0.995054,0.957972,0.70748,0.0818796
-0.202861,-0.660902,1.11648,-0.692,0.848658,-0.0107524,0.46991,-0.727712,0.985191,0.954045,0.696867,0.080294
-0.196077,-0.668648,1.11116,-0.688149,0.84481,-0.00828957,0.474403,-0.72605,0.974689,0.949969,0.687166,0.0785626
-0.191802,-0.675639,1.10252,-0.68426,0.839816,-0.00705613,0.475136,-0.726166,0.964315,0.947667,0.678985,0.0777848
-0.190517,-0.68102,1.09047,-0.680454,0.833673,-0.00664246,0.472388,-0.728417,0.954621,0.948481,0.672608,0.078115
-0.192243,-0.684252,1.07638,-0.677677,0.826355,-0.00570911,0.467803,-0.732303,0.945794,0.952776,0.667911,0.0784765
-0.196563,-0.685125,1.06262,-0.677324,0.817878,-0.00244084,0.463845,-0.736693,0.93772,0.960012,0.664465,0.0770418
-0.202716,-0.683712,1.0517,-0.680602,0.808421,0.00472818,0.462903,-0.740236,0.930153,0.969037,0.661732,0.0720576
-0.209696,-0.680321,1.04543,-0.687874,0.798436,0.0163769,0.46638,-0.741797,0.922881,0.978388,0.659272,0.0626864
-0.216347,-0.675444,1.04412,-0.698111,0.788739,0.0314729,0.473912,-0.740838,0.915879,0.986581,0.656906,0.0497269
-0.221514,-0.669675,1.04662,-0.709019,0.780413,0.0475184,0.483436,-0.737489,0.909321,0.992329,0.654749,0.0355162
-0.224227,-0.663614,1.05095,-0.717829,0.774531,0.0614417,0.492098,-0.732322,0.903472,0.994689,0.653065,0.0230388
-0.223889,-0.657755,1.05502,-0.722177,0.77185,0.0705884,0.497261,-0.726074,0.89856,0.993203,0.652123,0.0149287
-0.220469,-0.652383,1.05745,-0.720958,0.772519,0.073689,0.497504,-0.719389,0.894648,0.988029,0.652041,0.0124966
-0.214546,-0.647529,1.05791,-0.714748,0.775962,0.0713365,0.493132,-0.712637,0.891575,0.97995,0.652712,0.0152396
-0.207094,-0.643035,1.05695,-0.705317,0.781117,0.065453,0.485713,-0.705952,0.889025,0.970131,0.653861,0.0213514
-0.199176,-0.638665,1.05548,-0.694849,0.786802,0.0584312,0.477295,-0.69932,0.886637,0.959789,0.655162,0.0285544
-0.191627,-0.634207,1.05436,-0.685165,0.792072,0.0522687,0.469621,-0.692668,0.884122,0.949867,0.656347,0.0349369
-0.184809,-0.629563,1.054,-0.677073,0.796517,0.0478532,0.46347,-0.685953,0.881355,0.940768,0.657297,0.0396477
-0.178617,-0.624757,1.05429,-0.670354,0.800254,0.0449462,0.458638,-0.679177,0.878371,0.932372,0.658046,0.0429141
-0.17268,-0.619884,1.05485,-0.664199,0.803702,0.0426579,0.454348,-0.672375,0.875298,0.924262,0.658711,0.0455877
-0.166573,-0.615055,1.05523,-0.657674,0.807342,0.0399646,0.449705,-0.665587,0.872284,0.91596,0.659431,0.0486487
-0.160022,-0.610339,1.05516,-0.650179,0.811484,0.0362054,0.444132,-0.658839,0.869423,0.907158,0.660294,0.0527301
-0.153,-0.605744,1.0546,-0.641653,0.816158,0.0313143,0.437569,-0.652136,0.866726,0.897828,0.661308,0.0578951
-0.145662,-0.601231,1.05371,-0.632433,0.82119,0.0256613,0.43034,-0.645463,0.864138,0.888143,0.662425,0.0637897
-0.138239,-0.596739,1.05272,-0.623027,0.826317,0.0198032,0.422932,-0.638798,0.86158,0.878362,0.663569,0.0698806
-0.130937,-0.592217,1.05187,-0.613886,0.831308,0.0142366,0.415779,-0.632121,0.85898,0.868717,0.664674,0.0756925
-0.123858,-0.587637,1.05124,-0.605233,0.836047,0.00920656,0.409095,-0.625424,0.856302,0.859323,0.665708,0.0809907
-0.116997,-0.583001,1.05085,-0.59706,0.840539,0.00470263,0.40287,-0.618706,0.853549,0.850174,0.66667,0.0857851
-0.110282,-0.578327,1.0506,-0.589205,0.844866,0.000549297,0.396952,-0.611974,0.850746,0.841189,0.667586,0.0902438
-0.103611,-0.573642,1.05041,-0.581447,0.849143,-0.0034986,0.391126,-0.605238,0.847927,0.832253,0.668488,0.0946016
-0.0968931,-0.568969,1.05016,-0.573585,0.853474,-0.00766053,0.3852,-0.598506,0.845124,0.823264,0.669404,0.0990686
-0.0900794,-0.564321,1.04981,-0.565514,0.857912,-0.012052,0.379074,-0.591784,0.842355,0.814168,0.670352,0.103755
-0.0831688,-0.559698,1.04937,-0.557231,0.862461,-0.0166767,0.372744,-0.58507,0.839619,0.804963,0.671331,0.108665
-0.0761906,-0.555092,1.04885,-0.5488,0.867085,-0.0214639,0.366272,-0.578363,0.836907,0.795682,0.672332,0.113731
-0.0691884,-0.550492,1.0483,-0.540315,0.871737,-0.0263091,0.359749,-0.571659,0.834203,0.786374,0.67334,0.118852
-0.0622028,-0.545888,1.04778,-0.531868,0.876371,-0.0311143,0.353261,-0.564952,0.831493,0.777084,0.674343,0.123935
-0.055257,-0.541274,1.04729,-0.523507,0.880959,-0.0358237,0.346857,-0.558242,0.828769,0.76784,0.675333,0.128926
-0.0483537,-0.536649,1.04685,-0.51524,0.885499,-0.0404307,0.340542,-0.551528,0.826031,0.758643,0.67631,0.133819
-0.0414815,-0.532016,1.04644,-0.507041,0.890004,-0.0449629,0.334293,-0.544811,0.823282,0.749481,0.677276,0.138641
-0.034622,-0.52738,1.04605,-0.498869,0.894494,-0.0494645,0.32807,-0.538093,0.820528,0.740333,0.678239,0.143433
-0.0277572,-0.522744,1.04565,-0.490686,0.89899,-0.0539789,0.321837,-0.531375,0.817776,0.73118,0.679203,0.148238
-0.020876,-0.518114,1.04523,-0.482467,0.903506,-0.0585329,0.315568,-0.524659,0.81503,0.722008,0.680172,0.15308
-0.0139762,-0.513488,1.0448,-0.474208,0.908042,-0.0631315,0.309261,-0.517945,0.812291,0.712815,0.681147,0.157965
-0.00706221,-0.508865,1.04434,-0.465917,0.912594,-0.0677644,0.302924,-0.511232,0.809556,0.703606,0.682127,0.162883
-0.000141712,-0.504244,1.04389,-0.457612,0.917153,-0.0724129,0.296573,-0.504519,0.806824,0.694389,0.68311,0.167816
0.00677732,-0.499623,1.04343,-0.44931,0.921711,-0.0770578,0.290225,-0.497807,0.804091,0.685175,0.684091,0.172745
0.0136896,-0.495001,1.04298,-0.441023,0.926261,-0.0816866,0.283891,-0.491093,0.801356,0.675968,0.685071,0.177659
0.0205939,-0.490376,1.04254,-0.432753,0.930803,-0.086296,0.277575,-0.484379,0.798618,0.66677,0.686047,0.182554
0.0274917,-0.485749,1.0421,-0.424498,0.935336,-0.0908899,0.271271,-0.477665,0.795877,0.657579,0.687022,0.187435
0.0343863,-0.481122,1.04167,-0.41625,0.939867,-0.095476,0.264975,-0.47095,0.793136,0.648392,0.687996,0.192308
0.0412812,-0.476494,1.04124,-0.408001,0.944397,-0.100063,0.258678,-0.464235,0.790395,0.639205,0.68897,0.197182
0.0481787,-0.471868,1.04081,-0.399746,0.948931,-0.104656,0.252375,-0.45752,0.787654,0.630014,0.689944,0.202062
0.0550797,-0.467242,1.04037,-0.391484,0.953468,-0.109258,0.246066,-0.450806,0.784915,0.62082,0.69092,0.20695
0.0619837,-0.462617,1.03993,-0.383215,0.958009,-0.113866,0.239749,-0.444092,0.782177,0.611622,0.691897,0.211844
0.0688892,-0.457992,1.03949,-0.374943,0.962551,-0.118479,0.23343,-0.437378,0.77944,0.602423,0.692874,0.216743
0.0757947,-0.453368,1.03904,-0.366671,0.967094,-0.123091,0.227111,-0.430664,0.776702,0.593224,0.693851,0.221641
0.0826992,-0.448743,1.0386,-0.358401,0.971635,-0.127701,0.220793,-0.423951,0.773964,0.584025,0.694828,0.226537
0.0896021,-0.444118,1.03816,-0.350134,0.976175,-0.132307,0.214479,-0.417236,0.771226,0.574829,0.695804,0.231429
0.0965038,-0.439492,1.03772,-0.34187,0.980713,-0.136911,0.208168,-0.410522,0.768487,0.565634,0.69678,0.236319
0.103405,-0.434867,1.03729,-0.333608,0.985251,-0.141512,0.201858,-0.403808,0.765748,0.55644,0.697756,0.241207
0.110306,-0.430241,1.03685,-0.325346,0.989788,-0.146113,0.195549,-0.397094,0.763008,0.547245,0.698732,0.246094
0.117207,-0.425615,1.03641,-0.317083,0.994326,-0.150715,0.189238,-0.390379,0.760269,0.538051,0.699708,0.250983
0.124109,-0.420989,1.03597,-0.308819,0.998864,-0.155319,0.182926,-0.383665,0.757531,0.528856,0.700684,0.255873
0.131012,-0.416364,1.03553,-0.300553,1.0034,-0.159924,0.176613,-0.376951,0.754792,0.51966,0.70166,0.260764
0.137914,-0.411739,1.03509,-0.292287,1.00794,-0.16453,0.1703,-0.370237,0.752053,0.510463,0.702637,0.265656
0.144817,-0.407114,1.03465,-0.28402,1.01248,-0.169136,0.163986,-0.363523,0.749315,0.501267,0.703613,0.270548
0.15172,-0.402489,1.03421,-0.275754,1.01702,-0.173742,0.157672,-0.356809,0.746576,0.492071,0.704589,0.27544
0.158622,-0.397863,1.03377,-0.267489,1.02156,-0.178347,0.151359,-0.350095,0.743838,0.482875,0.705565,0.280331
0.165524,-0.393238,1.03333,-0.259224,1.0261,-0.182952,0.145047,-0.34338,0.741099,0.473679,0.706541,0.285222
0.172426,-0.388612,1.0329,-0.250959,1.03064,-0.187556,0.138735,-0.336666,0.73836,0.464483,0.707518,0.290112
0.179328,-0.383987,1.03246,-0.242695,1.03518,-0.19216,0.132423,-0.329952,0.735621,0.455288,0.708494,0.295003
0.186231,-0.379361,1.03202,-0.23443,1.03972,-0.196764,0.12611,-0.323238,0.732883,0.446093,0.70947,0.299894
0.193134,-0.374735,1.03158,-0.226164,1.04425,-0.201368,0.119798,-0.316523,0.730144,0.436897,0.710446,0.304785
0.200036,-0.37011,1.03114,-0.217899,1.04879,-0.205973,0.113485,-0.309809,0.727406,0.427702,0.711423,0.309676
0.206939,-0.365484,1.0307,-0.209634,1.05333,-0.210578,0.107173,-0.303095,0.724667,0.418506,0.712399,0.314567
0.21384,-0.360859,1.03026,-0.201369,1.05787,-0.215183,0.10086,-0.296381,0.721928,0.40931,0.713375,0.319457
0.220741,-0.356235,1.02982,-0.193104,1.06241,-0.219787,0.0945474,-0.289667,0.719189,0.400113,0.714351,0.324347
0.227642,-0.35161,1.02938,-0.18484,1.06695,-0.224392,0.088235,-0.282953,0.71645,0.390917,0.715327,0.329237
0.234544,-0.346985,1.02895,-0.176576,1.07149,-0.228997,0.0819226,-0.276239,0.713711,0.381721,0.716303,0.334127
0.241446,-0.342359,1.02851,-0.168311,1.07603,-0.233601,0.07561,-0.269525,0.710972,0.372526,0.717279,0.339018
0.24835,-0.337733,1.02807,-0.160044,1.08057,-0.238206,0.0692972,-0.26281,0.708234,0.36333,0.718255,0.34391
0.255255,-0.333106,1.02762,-0.151777,1.08511,-0.242811,0.0629841,-0.256096,0.705496,0.354136,0.719232,0.348803
0.26216,-0.32848,1.02718,-0.14351,1.08965,-0.247415,0.0566709,-0.249381,0.702758,0.344941,0.720209,0.353697
0.269065,-0.323853,1.02674,-0.135243,1.09418,-0.25202,0.0503578,-0.242666,0.70002,0.335745,0.721186,0.35859
0.275967,-0.319228,1.0263,-0.126978,1.09872,-0.256625,0.0440453,-0.235952,0.697281,0.32655,0.722162,0.36348
0.282866,-0.314604,1.02586,-0.118715,1.10326,-0.261229,0.0377334,-0.229239,0.694542,0.317353,0.723137,0.368368
0.289762,-0.309982,1.02543,-0.110455,1.1078,-0.265834,0.0314221,-0.222526,0.691801,0.308156,0.724112,0.373254
0.296657,-0.30536,1.025,-0.102196,1.11233,-0.270438,0.0251111,-0.215813,0.689061,0.298958,0.725086,0.378138
0.303554,-0.300737,1.02457,-0.0939347,1.11687,-0.275042,0.0187998,-0.2091,0.68632,0.289761,0.726061,0.383024
0.310456,-0.296112,1.02413,-0.0856699,1.12141,-0.279646,0.0124873,-0.202386,0.683582,0.280565,0.727037,0.387914
0.317365,-0.291483,1.02368,-0.0773995,1.12595,-0.284252,0.00617322,-0.19567,0.680845,0.271371,0.728015,0.392811
0.324281,-0.286851,1.02323,-0.0691236,1.1305,-0.288857,-0.000142376,-0.188953,0.67811,0.262179,0.728995,0.397714
0.3312,-0.282217,1.02277,-0.0608451,1.13504,-0.293463,-0.00645871,-0.182236,0.675376,0.252988,0.729975,0.402621
0.338115,-0.277586,1.02232,-0.0525692,1.13958,-0.298069,-0.0127743,-0.175518,0.672641,0.243795,0.730955,0.407524
0.34502,-0.272959,1.02187,-0.044302,1.14412,-0.302674,-0.0190875,-0.168804,0.669903,0.2346,0.731931,0.412417
0.351909,-0.26834,1.02145,-0.0360476,1.14866,-0.307277,-0.025397,-0.162092,0.667161,0.225401,0.732904,0.417296
0.358782,-0.263729,1.02104,-0.0278062,1.15319,-0.31188,-0.031703,-0.155385,0.664413,0.216198,0.733873,0.422159
0.365646,-0.259122,1.02065,-0.019572,1.15771,-0.316481,-0.0380069,-0.148679,0.661664,0.206992,0.73484,0.427014
0.372516,-0.254513,1.02025,-0.0113333,1.16224,-0.321083,-0.044312,-0.141972,0.658916,0.197787,0.735808,0.431875
0.379408,-0.249892,1.01982,-0.00307611,1.16678,-0.325687,-0.0506224,-0.13526,0.656174,0.188589,0.736781,0.436756
0.386336,-0.245254,1.01935,0.00520996,1.17132,-0.330294,-0.0569408,-0.12854,0.653443,0.1794,0.737764,0.441671
0.393303,-0.240597,1.01884,0.0135269,1.17588,-0.334903,-0.063268,-0.121812,0.650723,0.170221,0.738756,0.446622
0.400293,-0.235929,1.0183,0.0218632,1.18045,-0.339515,-0.0696005,-0.115078,0.648009,0.161049,0.739755,0.451595
0.407275,-0.231264,1.01776,0.0301926,1.18502,-0.344127,-0.0759311,-0.108347,0.645293,0.151874,0.740751,0.45656
0.414208,-0.226624,1.01729,0.038483,1.18957,-0.348734,-0.0822508,-0.101626,0.642563,0.142687,0.741735,0.46148
0.421061,-0.222022,1.01691,0.0467084,1.19409,-0.353334,-0.0885523,-0.0949223,0.63981,0.133478,0.742699,0.466325
0.427825,-0.217465,1.01663,0.0548611,1.19858,-0.357928,-0.0948333,-0.0882387,0.637032,0.124246,0.74364,0.471086
0.434526,-0.212938,1.01642,0.0629638,1.20305,-0.362516,-0.1011,-0.0815687,0.634236,0.114997,0.744566,0.47579
0.441237,-0.208407,1.01621,0.0710737,1.20753,-0.367104,-0.107369,-0.0748967,0.631443,0.10575,0.745494,0.480502
0.448048,-0.203826,1.01588,0.0792653,1.21203,-0.371701,-0.113661,-0.0682026,0.628678,0.0965304,0.746447,0.485308
0.455039,-0.199157,1.01533,0.0876022,1.2166,-0.376313,-0.119994,-0.0614689,0.625965,0.0873581,0.747445,0.490281
0.46224,-0.194385,1.01455,0.096109,1.22124,-0.380943,-0.126374,-0.054689,0.623311,0.0782414,0.748497,0.495451
0.469598,-0.189536,1.01357,0.104743,1.22594,-0.385585,-0.132791,-0.0478745,0.620703,0.0691663,0.749588,0.500767
0.47696,-0.184685,1.0126,0.11338,1.23064,-0.390228,-0.139207,-0.0410592,0.618095,0.0600922,0.750679,0.506087
0.484113,-0.179937,1.01187,0.121848,1.23526,-0.394853,-0.145577,-0.0342898,0.615428,0.0509629,0.751719,0.511212
0.490867,-0.175384,1.0116,0.129994,1.23975,-0.399446,-0.151856,-0.0276082,0.612647,0.041728,0.752657,0.515964
0.497133,-0.171071,1.0119,0.137744,1.24407,-0.403998,-0.158024,-0.0210342,0.609727,0.0323637,0.753474,0.520261
0.503004,-0.166952,1.01267,0.145173,1.24825,-0.408517,-0.164102,-0.0145471,0.606693,0.022895,0.75419,0.524189
0.508808,-0.162865,1.01351,0.15255,1.25242,-0.41303,-0.170165,-0.00807447,0.603641,0.0134087,0.754891,0.528055
0.515032,-0.158573,1.01387,0.160265,1.25672,-0.417578,-0.176324,-0.00150964,0.600709,0.00403329,0.755696,0.532313
0.522139,-0.153846,1.01319,0.168696,1.26133,-0.4222,-0.182683,0.00524986,0.598029,-0.00510803,0.756724,0.537396
0.530393,-0.148558,1.01117,0.178056,1.26633,-0.426917,-0.189303,0.0122615,0.595676,-0.013946,0.75804,0.543548
0.539667,-0.142769,1.00796,0.188242,1.27169,-0.431719,-0.196154,0.0194971,0.593614,-0.0225142,0.759612,0.550651
0.549302,-0.136803,1.00433,0.198723,1.27716,-0.436551,-0.203085,0.026811,0.591654,-0.0309872,0.761273,0.558089
0.558197,-0.131201,1.00157,0.208608,1.28238,-0.441323,-0.209847,0.0339613,0.589481,-0.039656,0.762746,0.564835
0.565125,-0.126564,1.0011,0.216899,1.28693,-0.445932,-0.216163,0.0406787,0.586747,-0.0488456,0.763725,0.569746
0.569064,-0.123392,1.00412,0.222762,1.29045,-0.450289,-0.221804,0.0467423,0.583164,-0.0588251,0.763959,0.571874
0.569538,-0.121916,1.01118,0.225792,1.2928,-0.454351,-0.226672,0.0520546,0.578604,-0.0697191,0.763338,0.570789
0.566912,-0.12195,1.02185,0.226261,1.2941,-0.45814,-0.230863,0.056708,0.573186,-0.0814274,0.761972,0.566854
0.562386,-0.1229,1.03473,0.225107,1.29479,-0.461744,-0.234667,0.0609817,0.567265,-0.0936312,0.760182,0.56121
0.557626,-0.123938,1.04786,0.223657,1.29544,-0.465292,-0.238473,0.065259,0.561322,-0.105892,0.7584,0.555427
0.554351,-0.124211,1.05926,0.223298,1.29664,-0.468916,-0.242669,0.0699321,0.555836,-0.117769,0.757056,0.551094
0.553908,-0.123044,1.06737,0.225153,1.29883,-0.472723,-0.247542,0.0753069,0.551147,-0.12893,0.756461,0.549415
0.556881,-0.12014,1.07156,0.229774,1.30217,-0.47676,-0.253173,0.0815131,0.547343,-0.139267,0.756699,0.550829
0.562968,-0.115633,1.07226,0.237031,1.30649,-0.481008,-0.259425,0.0884761,0.544229,-0.148914,0.757605,0.554907
0.571239,-0.109975,1.07059,0.246287,1.31141,-0.485402,-0.266018,0.0959767,0.541441,-0.158167,0.75886,0.560647
0.580485,-0.103762,1.068,0.256635,1.31649,-0.489853,-0.272636,0.103728,0.538584,-0.167365,0.760109,0.566847
0.589558,-0.0975797,1.06581,0.267128,1.32134,-0.494282,-0.279033,0.111456,0.535373,-0.17678,0.761085,0.572484
0.597703,-0.0918372,1.06478,0.277012,1.3258,-0.49864,-0.285133,0.118969,0.531766,-0.186507,0.76172,0.577077
0.604727,-0.0866866,1.06495,0.285861,1.32996,-0.502924,-0.291063,0.126206,0.528002,-0.196429,0.762184,0.58083
0.610876,-0.0820666,1.06584,0.293572,1.33406,-0.507162,-0.29707,0.133205,0.524473,-0.206301,0.762782,0.584395
0.616628,-0.0777832,1.06675,0.300304,1.33842,-0.511397,-0.303408,0.140068,0.521548,-0.215871,0.763813,0.58853
0.622487,-0.0735914,1.06706,0.306426,1.34321,-0.515671,-0.310221,0.146921,0.519398,-0.225006,0.765427,0.593754
0.628784,-0.0692746,1.06654,0.312459,1.34843,-0.52,-0.317432,0.15387,0.517825,-0.233802,0.767491,0.600014
0.635552,-0.064701,1.06553,0.319002,1.35375,-0.524368,-0.324693,0.160968,0.51621,-0.242622,0.769542,0.606531
0.642575,-0.0598252,1.06478,0.326612,1.35866,-0.528728,-0.331477,0.168197,0.513714,-0.251941,0.770945,0.612064
0.649498,-0.0546711,1.06524,0.335677,1.36263,-0.533003,-0.337219,0.175455,0.509575,-0.262126,0.771121,0.615312
0.65594,-0.0493148,1.06778,0.34628,1.36519,-0.537098,-0.341455,0.182536,0.503402,-0.273218,0.769776,0.615318
0.661601,-0.043867,1.073,0.358073,1.36616,-0.540903,-0.343968,0.189122,0.495466,-0.28471,0.767131,0.611877
0.666342,-0.0384579,1.08102,0.370227,1.36565,-0.544306,-0.344873,0.194787,0.486845,-0.295468,0.764024,0.605757
0.670155,-0.0332289,1.09155,0.381619,1.3641,-0.547221,-0.344581,0.199075,0.479166,-0.304008,0.761697,0.598461
0.673106,-0.0283265,1.10402,0.391114,1.36208,-0.549619,-0.343699,0.201598,0.474161,-0.308939,0.76143,0.59176
0.675261,-0.0238968,1.11769,0.397856,1.36018,-0.55157,-0.342926,0.202138,0.473222,-0.30941,0.764169,0.587233
0.676622,-0.0200799,1.13183,0.401553,1.35891,-0.553267,-0.342952,0.20075,0.476953,-0.305555,0.770164,0.585797
0.677084,-0.0170018,1.14578,0.40267,1.35855,-0.555055,-0.344366,0.197823,0.484871,-0.298767,0.778721,0.587387
0.676473,-0.014761,1.15906,0.402251,1.35921,-0.557382,-0.347581,0.193994,0.495599,-0.291368,0.788402,0.591106
0.674638,-0.0134097,1.17132,0.40157,1.36082,-0.56073,-0.352784,0.189989,0.507334,-0.285938,0.797457,0.595651
0.671539,-0.0129367,1.18236,0.401743,1.36319,-0.565539,-0.359876,0.186454,0.518337,-0.284637,0.804282,0.599753
0.667336,-0.0132484,1.19217,0.403367,1.36613,-0.572132,-0.368423,0.183788,0.527418,-0.288513,0.807869,0.602616
0.662453,-0.0141585,1.20086,0.406224,1.36938,-0.580651,-0.377629,0.182017,0.534322,-0.296982,0.808162,0.604258
0.657511,-0.0154105,1.20871,0.409404,1.37274,-0.591016,-0.386447,0.180836,0.539665,-0.308031,0.806003,0.605417
0.653175,-0.0167218,1.21605,0.411695,1.37602,-0.602921,-0.393788,0.179778,0.544553,-0.318925,0.80278,0.607155
0.649993,-0.0178312,1.22328,0.411995,1.37901,-0.61582,-0.398737,0.178389,0.550183,-0.326952,0.800058,0.610437
0.648234,-0.0185456,1.23079,0.40973,1.38154,-0.628918,-0.400764,0.176404,0.557439,-0.330174,0.799206,0.615705
0.647757,-0.01878,1.23894,0.4052,1.38347,-0.641186,-0.399903,0.173898,0.566539,-0.328066,0.801066,0.622537
0.648053,-0.0185603,1.24798,0.399527,1.38466,-0.651477,-0.396712,0.171273,0.577011,-0.321545,0.805865,0.629712
0.648444,-0.0179921,1.25812,0.394263,1.38511,-0.658748,-0.392047,0.169108,0.587947,-0.312451,0.813328,0.635661
0.648284,-0.0172272,1.26941,0.390947,1.38491,-0.66229,-0.386805,0.168,0.598281,-0.30298,0.822825,0.638945
0.647183,-0.0164288,1.28178,0.390679,1.38439,-0.661956,-0.381681,0.168391,0.607075,-0.295109,0.833509,0.638744
0.645181,-0.015738,1.29501,0.39372,1.38406,-0.658361,-0.37694,0.170424,0.613782,-0.290067,0.844458,0.635282
0.642754,-0.0152487,1.30876,0.399444,1.38462,-0.652822,-0.372403,0.173903,0.618341,-0.288167,0.854781,0.629846
0.64061,-0.014989,1.32262,0.406633,1.38677,-0.647025,-0.367648,0.178376,0.621097,-0.289011,0.863709,0.624356
0.639447,-0.0149053,1.33619,0.413849,1.39103,-0.642649,-0.362249,0.183237,0.622699,-0.291765,0.87067,0.620863
0.639725,-0.0148458,1.34912,0.419783,1.39753,-0.640998,-0.356016,0.187826,0.623987,-0.295425,0.875369,0.621053
0.641441,-0.0145475,1.36123,0.423604,1.4059,-0.642639,-0.349216,0.191531,0.625887,-0.299076,0.877861,0.625774
0.644102,-0.013663,1.37247,0.425095,1.41525,-0.647296,-0.342605,0.193867,0.629286,-0.302044,0.878552,0.634866
0.646927,-0.0118394,1.38289,0.424518,1.42444,-0.654058,-0.337222,0.194525,0.634883,-0.303912,0.878105,0.647394
0.649119,-0.00880824,1.39256,0.422425,1.4324,-0.661648,-0.334125,0.193423,0.643036,-0.304496,0.877328,0.661963
0.650115,-0.00447485,1.40152,0.419472,1.43844,-0.668699,-0.334131,0.190747,0.65361,-0.303832,0.877058,0.677025
0.649844,0.000996523,1.4097,0.416234,1.44257,-0.674018,-0.337563,0.186996,0.665836,-0.302156,0.878048,0.691192
0.648799,0.00716575,1.4169,0.413102,1.44555,-0.676767,-0.344138,0.182943,0.678348,-0.29985,0.88088,0.703439
0.647826,0.0134142,1.42292,0.410326,1.4486,-0.676481,-0.353078,0.179467,0.689514,-0.29735,0.885901,0.713139
0.647838,0.0190713,1.42761,0.408086,1.45306,-0.673064,-0.363287,0.177349,0.697837,-0.295032,0.893174,0.720059
0.649522,0.0235419,1.43105,0.406565,1.45994,-0.666764,-0.373519,0.177071,0.70237,-0.293099,0.902428,0.72435
0.653066,0.0264312,1.4336,0.406024,1.46961,-0.658165,-0.382561,0.178616,0.703102,-0.291478,0.913013,0.726534
0.658021,0.0276243,1.43599,0.406825,1.48158,-0.648128,-0.389379,0.181402,0.701119,-0.289792,0.923932,0.727452
0.663493,0.0272724,1.43906,0.409356,1.49472,-0.637661,-0.39324,0.184479,0.698232,-0.287503,0.934035,0.728101
0.668429,0.0257462,1.44363,0.413924,1.50768,-0.627756,-0.393813,0.186816,0.696451,-0.284117,0.942276,0.729445
0.671911,0.0235895,1.4502,0.420644,1.51918,-0.619229,-0.391268,0.187589,0.697441,-0.279383,0.947963,0.732221
0.673446,0.0214722,1.45879,0.429339,1.52846,-0.612565,-0.386384,0.186466,0.702001,-0.273494,0.951009,0.736754
0.673142,0.0201248,1.46876,0.439486,1.53545,-0.60782,-0.380536,0.183773,0.709747,-0.267182,0.952055,0.742856
0.671572,0.0202251,1.47905,0.450342,1.54068,-0.604694,-0.37542,0.180329,0.719395,-0.261519,0.952267,0.749965
0.669524,0.0222659,1.48843,0.461129,1.54502,-0.60267,-0.372659,0.177159,0.729272,-0.257617,0.952991,0.757395
0.667733,0.0264206,1.49588,0.471223,1.54943,-0.601165,-0.373406,0.175186,0.737854,-0.25631,0.955408,0.764573
0.666625,0.0324116,1.5008,0.480343,1.55468,-0.599668,-0.377946,0.174944,0.744286,-0.257841,0.960187,0.771287
0.666137,0.0394472,1.50332,0.48867,1.56118,-0.597862,-0.385454,0.176357,0.748743,-0.261669,0.96724,0.777845
0.665815,0.0463926,1.50414,0.49672,1.56892,-0.595647,-0.394241,0.178829,0.752232,-0.266652,0.975821,0.784948
0.665056,0.052064,1.50424,0.505099,1.57762,-0.593126,-0.402268,0.181476,0.756098,-0.271436,0.984803,0.793407
0.66336,0.0555292,1.50465,0.514249,1.58681,-0.590577,-0.407675,0.18337,0.76152,-0.274851,0.99297,0.803859
0.660577,0.0564073,1.50612,0.52419,1.5959,-0.588437,-0.409301,0.183784,0.769,-0.276307,0.999298,0.816482
0.657096,0.0550888,1.50892,0.534339,1.60434,-0.587262,-0.407095,0.182391,0.777985,-0.276102,1.0032,0.830781
0.653736,0.0526141,1.51286,0.543615,1.61164,-0.587635,-0.40202,0.179279,0.787045,-0.275306,1.00457,0.845708
0.651466,0.0503261,1.51742,0.550748,1.61743,-0.590026,-0.395621,0.174842,0.794404,-0.275393,1.00371,0.859989
0.651094,0.0495061,1.52197,0.554598,1.62153,-0.594663,-0.389569,0.169658,0.798514,-0.277834,1.0012,0.872477
0.65297,0.0510091,1.52596,0.554478,1.62398,-0.601387,-0.385209,0.164372,0.798611,-0.283705,0.997837,0.882494
0.656733,0.0549574,1.52905,0.550418,1.6251,-0.60956,-0.383164,0.159589,0.795188,-0.29334,0.994539,0.890121
0.661393,0.0607592,1.53119,0.543144,1.62541,-0.618157,-0.383299,0.155809,0.789882,-0.3063,0.992203,0.896134
0.66566,0.0673931,1.53255,0.533816,1.62558,-0.626044,-0.384979,0.153412,0.784909,-0.321584,0.991612,0.901661
0.668313,0.0737212,1.53346,0.523739,1.62628,-0.632256,-0.387352,0.152648,0.782432,-0.337877,0.993299,0.907798
0.668563,0.0788025,1.53438,0.514078,1.62805,-0.636289,-0.389636,0.153618,0.783946,-0.353794,0.99743,0.915242
0.666375,0.0821762,1.5358,0.505592,1.63125,-0.638344,-0.391379,0.156268,0.78972,-0.368104,1.0037,0.92395
0.662482,0.0839211,1.5382,0.498569,1.63599,-0.639307,-0.392538,0.1604,0.798736,-0.379861,1.01138,0.933131
0.658085,0.0844867,1.542,0.49296,1.64218,-0.640435,-0.393364,0.165698,0.809137,-0.388405,1.01951,0.941565
0.6545,0.0844914,1.54747,0.488543,1.64958,-0.643013,-0.394261,0.17177,0.818756,-0.393366,1.02714,0.947969
0.652816,0.08452,1.5547,0.485079,1.65786,-0.648004,-0.395647,0.178174,0.825628,-0.39465,1.03353,0.951364
0.653563,0.0849334,1.56354,0.482472,1.66666,-0.655724,-0.39782,0.184461,0.828493,-0.392443,1.03835,0.951418
0.656594,0.0857878,1.57356,0.480829,1.6756,-0.665732,-0.400893,0.190199,0.827005,-0.387176,1.04179,0.948568
0.661223,0.0868962,1.58417,0.480415,1.68431,-0.677,-0.404822,0.195005,0.821595,-0.37948,1.0444,0.943855
0.666423,0.0879162,1.59467,0.481579,1.69247,-0.688131,-0.409445,0.198572,0.813258,-0.370133,1.04697,0.93871
0.671009,0.0884384,1.60431,0.48469,1.69982,-0.697582,-0.414527,0.200697,0.803347,-0.360008,1.05037,0.93473
0.67384,0.0880743,1.61241,0.490062,1.70615,-0.703885,-0.419804,0.201307,0.79336,-0.350012,1.05545,0.933465
0.674002,0.0865447,1.61839,0.497887,1.71137,-0.705867,-0.425019,0.200489,0.784734,-0.341043,1.06282,0.936197
0.671007,0.0837676,1.62188,0.508164,1.71548,-0.702873,-0.429972,0.198513,0.778634,-0.333928,1.07277,0.943722
0.664981,0.0799468,1.62279,0.520629,1.7186,-0.694984,-0.434557,0.195865,0.775742,-0.329372,1.0851,0.956135
0.656856,0.0756599,1.62137,0.534688,1.72103,-0.683241,-0.438807,0.193272,0.77605,-0.327907,1.09898,0.972607
0.648566,0.0719461,1.61833,0.549341,1.72322,-0.669865,-0.442936,0.191729,0.778648,-0.329836,1.11277,0.991168
0.643234,0.0703953,1.61486,0.56312,1.72579,-0.658478,-0.447382,0.192526,0.781517,-0.335177,1.12396,1.00849
0.645368,0.0732352,1.61275,0.574012,1.72959,-0.654324,-0.452848,0.197278,0.781316,-0.343615,1.12893,1.01968
0.661051,0.0834203,1.61445,0.579393,1.73567,-0.664491,-0.460347,0.207952,0.773177,-0.354445,1.12285,1.01803
0.698132,0.10472,1.62316,0.575959,1.74533,-0.698132,-0.471239,0.226893,0.750492,-0.366519,1.09956,0.994838
