SunnyProdefi/pinocchioRep/planning/pathPoints.csv
joint1,joint2,joint3,joint4,joint5,joint6,joint7,joint8,joint9,joint10,joint11,joint12
-0.5235,-0.7853,1.5708,-0.7853,1.0471,-0.2617,0.5235,-0.7853,1.5708,0.7853,1.0471,0.261799
-0.528288,-0.780106,1.56144,-0.745417,1.03951,-0.209247,0.540977,-0.804651,1.51158,0.80948,1.05903,0.28522
-0.525497,-0.778077,1.5776,-0.72597,1.05326,-0.239323,0.558517,-0.78729,1.48187,0.743713,1.04215,0.331624
-0.483846,-0.748011,1.57857,-0.682925,1.07524,-0.253461,0.523202,-0.75317,1.45671,0.707034,1.04348,0.35243
-0.442196,-0.717945,1.57954,-0.63988,1.09723,-0.267599,0.487887,-0.719051,1.43155,0.670356,1.04481,0.373235
-0.400545,-0.687879,1.5805,-0.596835,1.11921,-0.281737,0.452572,-0.684932,1.40639,0.633677,1.04614,0.39404
-0.358894,-0.657813,1.58147,-0.55379,1.1412,-0.295875,0.417256,-0.650813,1.38123,0.596998,1.04747,0.414845
-0.317243,-0.627747,1.58244,-0.510745,1.16318,-0.310013,0.381941,-0.616694,1.35607,0.56032,1.0488,0.435651
-0.275592,-0.597681,1.5834,-0.4677,1.18517,-0.324151,0.346626,-0.582574,1.33091,0.523641,1.05013,0.456456
-0.233941,-0.567615,1.58437,-0.424654,1.20715,-0.338289,0.311311,-0.548455,1.30575,0.486962,1.05146,0.477261
-0.19229,-0.537549,1.58534,-0.381609,1.22913,-0.352427,0.275995,-0.514336,1.28059,0.450284,1.05279,0.498066
-0.150639,-0.507484,1.58631,-0.338564,1.25112,-0.366565,0.24068,-0.480217,1.25543,0.413605,1.05412,0.518871
-0.108988,-0.477418,1.58727,-0.295519,1.2731,-0.380703,0.205365,-0.446098,1.23028,0.376927,1.05545,0.539677
-0.0673372,-0.447352,1.58824,-0.252474,1.29509,-0.39484,0.17005,-0.411978,1.20512,0.340248,1.05678,0.560482
-0.0256862,-0.417286,1.58921,-0.209429,1.31707,-0.408978,0.134734,-0.377859,1.17996,0.303569,1.05811,0.581287
0.0159647,-0.38722,1.59017,-0.166383,1.33905,-0.423116,0.099419,-0.34374,1.1548,0.266891,1.05944,0.602092
0.00735541,-0.401852,1.5258,-0.115331,1.34101,-0.445135,0.105412,-0.369394,1.15942,0.29672,1.06354,0.631262
0.0382731,-0.381328,1.48538,-0.0891986,1.29869,-0.418846,0.111249,-0.347134,1.16042,0.332524,1.0359,0.66658
-0.0080779,-0.391174,1.49452,-0.0568302,1.29698,-0.439263,0.0951699,-0.319084,1.18297,0.304941,1.01297,0.724576
0.00267221,-0.415438,1.46059,-0.000406821,1.27066,-0.447994,0.058661,-0.30372,1.18654,0.275407,1.02399,0.684374
-0.0362141,-0.412976,1.45056,0.0420864,1.2637,-0.396414,0.0659897,-0.291629,1.19066,0.220266,0.999352,0.685744
-0.0131192,-0.417358,1.39561,0.0725511,1.27044,-0.347308,0.0394528,-0.276079,1.17685,0.178366,1.00045,0.673502
-0.037742,-0.432492,1.36621,0.126569,1.27686,-0.377281,0.0740536,-0.25068,1.19999,0.159925,0.997899,0.714951
0.00304895,-0.408267,1.34109,0.166417,1.28593,-0.345227,0.100198,-0.283215,1.16773,0.150454,1.01197,0.751689
0.047439,-0.370641,1.33598,0.185279,1.29517,-0.351647,0.0669466,-0.251056,1.11972,0.111762,1.00613,0.763056
0.0676031,-0.373335,1.32535,0.242703,1.27508,-0.333173,0.0637755,-0.228919,1.11591,0.0562326,0.999085,0.720831
0.0751985,-0.350482,1.2798,0.239537,1.2802,-0.318961,0.0841972,-0.234988,1.09986,0.00182447,0.955192,0.759673
0.0562828,-0.38367,1.26837,0.205092,1.29519,-0.313004,0.0950237,-0.263139,1.09126,-0.0663692,0.953154,0.796072
0.0469035,-0.360651,1.20139,0.207364,1.25662,-0.319992,0.135057,-0.235823,1.11248,-0.0865303,0.941007,0.797009
0.0442629,-0.390827,1.16451,0.235133,1.23699,-0.314846,0.153264,-0.216531,1.06997,-0.136763,0.94643,0.835431
0.0517456,-0.387864,1.16278,0.232629,1.23372,-0.313097,0.149572,-0.214547,1.06016,-0.133677,0.943766,0.828749
0.0978944,-0.369587,1.15211,0.217188,1.21355,-0.302311,0.126803,-0.202309,0.999643,-0.114642,0.927336,0.787538
0.144043,-0.351311,1.14144,0.201747,1.19337,-0.291524,0.104034,-0.190072,0.93913,-0.0956075,0.910905,0.746328
0.190192,-0.333034,1.13077,0.186305,1.1732,-0.280737,0.0812651,-0.177835,0.878617,-0.0765728,0.894475,0.705118
0.236341,-0.314757,1.1201,0.170864,1.15302,-0.269951,0.058496,-0.165598,0.818105,-0.0575382,0.878045,0.663907
0.28249,-0.296481,1.10943,0.155423,1.13284,-0.259164,0.0357269,-0.15336,0.757592,-0.0385036,0.861614,0.622697
0.328639,-0.278204,1.09876,0.139981,1.11267,-0.248378,0.0129579,-0.141123,0.69708,-0.019469,0.845184,0.581486
0.374788,-0.259927,1.08808,0.12454,1.09249,-0.237591,-0.00981121,-0.128886,0.636567,-0.000434337,0.828754,0.540276
0.420937,-0.241651,1.07741,0.109099,1.07232,-0.226804,-0.0325803,-0.116649,0.576054,0.0186003,0.812324,0.499066
0.467085,-0.223374,1.06674,0.0936574,1.05214,-0.216018,-0.0553493,-0.104411,0.515542,0.0376349,0.795893,0.457855
0.466594,-0.201618,1.09298,0.0611498,1.09773,-0.20922,-0.0575021,-0.0979827,0.487527,-0.031453,0.802589,0.460729
0.510373,-0.177299,1.07537,0.101541,1.10292,-0.212137,-0.080934,-0.067955,0.439807,-0.0693963,0.796597,0.478371
0.504557,-0.163051,1.08682,0.117757,1.1202,-0.237608,-0.110743,-0.0333314,0.474608,-0.118702,0.780908,0.527827
0.540915,-0.132797,1.08804,0.158386,1.14054,-0.266836,-0.135863,0.00133632,0.462095,-0.145463,0.781297,0.574054
0.577273,-0.102544,1.08927,0.199015,1.16088,-0.296065,-0.160983,0.036004,0.449582,-0.172224,0.781685,0.62028
0.613631,-0.0722904,1.09049,0.239644,1.18122,-0.325293,-0.186103,0.0706718,0.43707,-0.198985,0.782073,0.666506
0.588913,-0.0385198,1.11038,0.281335,1.2068,-0.330463,-0.183838,0.0658725,0.498262,-0.234671,0.79295,0.682909
0.621933,-0.00741307,1.1127,0.329412,1.22797,-0.354513,-0.206057,0.102264,0.480237,-0.264816,0.798225,0.721885
0.654954,0.0236936,1.11502,0.377488,1.24914,-0.378563,-0.228276,0.138656,0.462212,-0.294961,0.8035,0.760861
0.632181,0.0386067,1.18016,0.348078,1.2396,-0.369453,-0.267098,0.138059,0.441971,-0.301182,0.839129,0.788265
0.665419,0.0707026,1.18459,0.391367,1.25883,-0.392678,-0.293035,0.175285,0.424634,-0.333668,0.843957,0.828575
0.641267,0.110602,1.17149,0.385431,1.27337,-0.444411,-0.334032,0.184807,0.470953,-0.354083,0.83369,0.845627
0.627165,0.118512,1.22069,0.356366,1.31836,-0.411421,-0.34728,0.174831,0.514285,-0.352041,0.852124,0.875033
0.616856,0.106032,1.26053,0.384876,1.37642,-0.386546,-0.335212,0.175349,0.505656,-0.38574,0.89254,0.893965
0.629462,0.122698,1.26901,0.432594,1.41633,-0.435828,-0.369033,0.170595,0.490221,-0.395543,0.929463,0.912096
0.63587,0.138346,1.2669,0.477635,1.46862,-0.430579,-0.388596,0.203534,0.515926,-0.377825,0.916067,0.960025
0.634161,0.127024,1.32172,0.494168,1.5132,-0.454836,-0.408599,0.187553,0.540993,-0.377762,0.912394,1.01215
0.632224,0.148983,1.368,0.519713,1.5439,-0.50448,-0.434979,0.207105,0.580477,-0.366185,0.935638,1.0109
0.654972,0.162651,1.42232,0.491115,1.56082,-0.506313,-0.406042,0.196205,0.621902,-0.318473,0.945273,1.02492
0.671749,0.138442,1.45446,0.463015,1.56155,-0.541848,-0.403123,0.203368,0.67872,-0.275256,0.958395,1.05173
0.678886,0.120521,1.50528,0.4146,1.5787,-0.561472,-0.435802,0.18666,0.643855,-0.251967,0.977017,1.02785
0.6712,0.116102,1.53375,0.392272,1.57935,-0.559822,-0.4447,0.211858,0.705007,-0.245472,1.03038,0.992264
0.651923,0.109496,1.55308,0.40436,1.60883,-0.620526,-0.445384,0.194986,0.745772,-0.290284,1.03435,0.969029
0.6289,0.0913078,1.56082,0.453583,1.6315,-0.666619,-0.424146,0.196365,0.781152,-0.323532,1.04817,0.937143
0.654253,0.0735321,1.605,0.493271,1.67595,-0.639776,-0.441777,0.179127,0.769234,-0.295198,1.07983,0.920926
0.657981,0.0757521,1.62114,0.532699,1.72222,-0.682126,-0.438101,0.193122,0.775408,-0.328019,1.09823,0.971606
0.698132,0.10472,1.62316,0.575959,1.74533,-0.698132,-0.471239,0.226893,0.750492,-0.366519,1.09956,0.994838
